;FLAVOR:Marlin
;TIME:8801
;Filament used: 8.13453m
;Layer height: 0.15
;MINX:68.2
;MINY:13.2
;MINZ:0.3
;MAXX:131.8
;MAXY:186.8
;MAXZ:6
;Generated with Cura_SteamEngine 4.8.0
M140 S60
M105
M190 S60
M104 S200
M105
M109 S200
M82 ;absolute extrusion mode
G21 ;metric values
G90 ;absolute positioning
M82 ;set extruder to absolute mode
M107 ;start with the fan off
G28 X0 Y0 ;move X/Y to min endstops
G28 Z0 ;move Z to min endstops
G1 Z15.0 F9000 ;move the platform down 15mm
G92 E0 ;zero the extruded length
G1 F200 E3 ;extrude 3mm of feed stock
G92 E0 ;zero the extruded length again
G1 F9000
;Put printing message on LCD screen
M117 Printing...
G92 E0
G92 E0
G1 F1500 E-6.5
;LAYER_COUNT:39
;LAYER:0
M107
G0 F3600 X68.557 Y18.666 Z0.3
;TYPE:SKIRT
G1 F1500 E0
G1 F1800 X68.831 Y17.926 E0.03937
G1 X69.179 Y17.217 E0.07877
G1 X69.597 Y16.546 E0.11821
G1 X70.08 Y15.922 E0.15758
G1 X70.623 Y15.349 E0.19696
G1 X71.222 Y14.834 E0.23638
G1 X71.87 Y14.383 E0.27576
G1 X72.561 Y13.999 E0.3152
G1 X73.286 Y13.687 E0.35458
G1 X74.039 Y13.45 E0.39396
G1 X74.813 Y13.291 E0.43339
G1 X75.598 Y13.21 E0.47276
G1 X76 Y13.2 E0.49282
G1 X124 Y13.2 E2.88755
G1 X124.789 Y13.24 E2.92696
G1 X125.569 Y13.359 E2.96633
G1 X126.334 Y13.557 E3.00575
G1 X127.074 Y13.831 E3.04512
G1 X127.783 Y14.179 E3.08452
G1 X128.454 Y14.597 E3.12396
G1 X129.078 Y15.08 E3.16333
G1 X129.651 Y15.623 E3.20272
G1 X130.166 Y16.222 E3.24213
G1 X130.617 Y16.87 E3.28152
G1 X131.001 Y17.561 E3.32095
G1 X131.313 Y18.286 E3.36033
G1 X131.55 Y19.039 E3.39972
G1 X131.709 Y19.813 E3.43914
G1 X131.79 Y20.598 E3.47851
G1 X131.8 Y21 E3.49857
G1 X131.8 Y179 E11.38122
G1 X131.76 Y179.789 E11.42064
G1 X131.641 Y180.569 E11.46
G1 X131.443 Y181.334 E11.49943
G1 X131.169 Y182.074 E11.53879
G1 X130.821 Y182.783 E11.5782
G1 X130.403 Y183.454 E11.61764
G1 X129.92 Y184.078 E11.65701
G1 X129.377 Y184.651 E11.69639
G1 X128.778 Y185.166 E11.7358
G1 X128.13 Y185.617 E11.77519
G1 X127.439 Y186.001 E11.81463
G1 X126.714 Y186.313 E11.85401
G1 X125.961 Y186.55 E11.89339
G1 X125.187 Y186.709 E11.93281
G1 X124.402 Y186.79 E11.97218
G1 X124 Y186.8 E11.99225
G1 X76 Y186.8 E14.38698
G1 X75.211 Y186.76 E14.42639
G1 X74.431 Y186.641 E14.46575
G1 X73.666 Y186.443 E14.50518
G1 X72.926 Y186.169 E14.54455
G1 X72.217 Y185.821 E14.58395
G1 X71.546 Y185.403 E14.62339
G1 X70.922 Y184.92 E14.66276
G1 X70.349 Y184.377 E14.70214
G1 X69.834 Y183.778 E14.74155
G1 X69.383 Y183.13 E14.78094
G1 X68.999 Y182.439 E14.82038
G1 X68.687 Y181.714 E14.85976
G1 X68.45 Y180.961 E14.89914
G1 X68.291 Y180.187 E14.93856
G1 X68.21 Y179.402 E14.97794
G1 X68.2 Y179 E14.998
G1 X68.2 Y21 E22.88065
G1 X68.24 Y20.211 E22.92006
G1 X68.359 Y19.431 E22.95943
G1 X68.557 Y18.666 E22.99885
G0 F3600 X68.957 Y18.729
G1 F1800 X69.231 Y18.01 E23.03724
G1 X69.578 Y17.324 E23.07559
G1 X69.994 Y16.677 E23.11397
G1 X70.475 Y16.077 E23.15233
G1 X71.016 Y15.53 E23.19072
G1 X71.611 Y15.042 E23.22911
G1 X72.253 Y14.619 E23.26747
G1 X72.936 Y14.264 E23.30587
G1 X73.651 Y13.983 E23.3442
G1 X74.393 Y13.777 E23.38261
G1 X75.151 Y13.649 E23.42097
G1 X76 Y13.6 E23.46339
G1 X124 Y13.6 E25.85812
G1 X124.768 Y13.64 E25.89649
G1 X125.528 Y13.759 E25.93487
G1 X126.271 Y13.957 E25.97323
G1 X126.99 Y14.231 E26.01162
G1 X127.676 Y14.578 E26.04997
G1 X128.323 Y14.994 E26.08835
G1 X128.923 Y15.475 E26.12671
G1 X129.47 Y16.016 E26.1651
G1 X129.958 Y16.611 E26.20349
G1 X130.381 Y17.253 E26.24185
G1 X130.736 Y17.936 E26.28025
G1 X131.017 Y18.651 E26.31858
G1 X131.223 Y19.393 E26.35699
G1 X131.351 Y20.151 E26.39535
G1 X131.4 Y21 E26.43777
G1 X131.4 Y179 E34.32043
G1 X131.36 Y179.768 E34.35879
G1 X131.241 Y180.528 E34.39717
G1 X131.043 Y181.271 E34.43553
G1 X130.769 Y181.99 E34.47392
G1 X130.422 Y182.676 E34.51228
G1 X130.006 Y183.323 E34.55065
G1 X129.525 Y183.923 E34.58902
G1 X128.984 Y184.47 E34.6274
G1 X128.389 Y184.958 E34.66579
G1 X127.747 Y185.381 E34.70415
G1 X127.064 Y185.736 E34.74255
G1 X126.349 Y186.017 E34.78088
G1 X125.607 Y186.223 E34.8193
G1 X124.849 Y186.351 E34.85765
G1 X124 Y186.4 E34.90008
G1 X76 Y186.4 E37.29481
G1 X75.232 Y186.36 E37.33317
G1 X74.472 Y186.241 E37.37155
G1 X73.729 Y186.043 E37.40991
G1 X73.01 Y185.769 E37.4483
G1 X72.324 Y185.422 E37.48666
G1 X71.677 Y185.006 E37.52503
G1 X71.077 Y184.525 E37.5634
G1 X70.53 Y183.984 E37.60178
G1 X70.042 Y183.389 E37.64017
G1 X69.619 Y182.747 E37.67853
G1 X69.264 Y182.064 E37.71693
G1 X68.983 Y181.349 E37.75526
G1 X68.777 Y180.607 E37.79368
G1 X68.649 Y179.849 E37.83203
G1 X68.6 Y179 E37.87446
G1 X68.6 Y21 E45.75711
G1 X68.64 Y20.232 E45.79548
G1 X68.759 Y19.472 E45.83386
G1 X68.957 Y18.729 E45.87222
G0 F3600 X69.357 Y18.793
G1 F1800 X69.63 Y18.097 E45.90952
G1 X69.977 Y17.434 E45.94685
G1 X70.392 Y16.811 E45.9842
G1 X70.871 Y16.237 E46.02149
G1 X71.408 Y15.716 E46.05882
G1 X71.998 Y15.257 E46.09612
G1 X72.634 Y14.862 E46.13347
G1 X73.308 Y14.538 E46.17078
G1 X74.013 Y14.288 E46.2081
G1 X74.741 Y14.114 E46.24544
G1 X75.483 Y14.019 E46.28276
G1 X76 Y14 E46.30857
G1 X124 Y14 E48.7033
G1 X124.747 Y14.04 E48.74062
G1 X125.485 Y14.159 E48.77792
G1 X126.207 Y14.357 E48.81527
G1 X126.903 Y14.63 E48.85257
G1 X127.566 Y14.977 E48.8899
G1 X128.189 Y15.392 E48.92725
G1 X128.763 Y15.871 E48.96454
G1 X129.284 Y16.408 E49.00187
G1 X129.743 Y16.998 E49.03917
G1 X130.138 Y17.634 E49.07652
G1 X130.462 Y18.308 E49.11383
G1 X130.712 Y19.013 E49.15115
G1 X130.886 Y19.741 E49.18849
G1 X130.981 Y20.483 E49.22581
G1 X131 Y21 E49.25162
G1 X131 Y179 E57.13427
G1 X130.96 Y179.747 E57.17159
G1 X130.841 Y180.485 E57.20889
G1 X130.643 Y181.207 E57.24624
G1 X130.37 Y181.903 E57.28354
G1 X130.023 Y182.566 E57.32087
G1 X129.608 Y183.189 E57.35822
G1 X129.129 Y183.763 E57.39552
G1 X128.592 Y184.284 E57.43284
G1 X128.002 Y184.743 E57.47014
G1 X127.366 Y185.138 E57.50749
G1 X126.692 Y185.462 E57.5448
G1 X125.987 Y185.712 E57.58212
G1 X125.259 Y185.886 E57.61946
G1 X124.517 Y185.981 E57.65678
G1 X124 Y186 E57.68259
G1 X76 Y186 E60.07732
G1 X75.253 Y185.96 E60.11464
G1 X74.515 Y185.841 E60.15194
G1 X73.793 Y185.643 E60.18929
G1 X73.097 Y185.37 E60.22659
G1 X72.434 Y185.023 E60.26392
G1 X71.811 Y184.608 E60.30127
G1 X71.237 Y184.129 E60.33857
G1 X70.716 Y183.592 E60.37589
G1 X70.257 Y183.002 E60.41319
G1 X69.862 Y182.366 E60.45054
G1 X69.538 Y181.692 E60.48785
G1 X69.288 Y180.987 E60.52517
G1 X69.114 Y180.259 E60.56251
G1 X69.019 Y179.517 E60.59983
G1 X69 Y179 E60.62564
G1 X69 Y21 E68.50829
G1 X69.04 Y20.253 E68.54562
G1 X69.159 Y19.515 E68.58291
G1 X69.357 Y18.793 E68.62026
G0 F3600 X69.757 Y18.859
G1 F1800 X70.03 Y18.186 E68.65649
G1 X70.375 Y17.547 E68.69272
G1 X70.789 Y16.95 E68.72897
G1 X71.265 Y16.402 E68.76518
G1 X71.799 Y15.909 E68.80144
G1 X72.384 Y15.479 E68.83766
G1 X73.013 Y15.115 E68.87392
G1 X73.678 Y14.822 E68.91018
G1 X74.371 Y14.604 E68.94642
G1 X75.083 Y14.464 E68.98262
G1 X76 Y14.4 E69.02848
G1 X124 Y14.4 E71.42321
G1 X124.725 Y14.44 E71.45944
G1 X125.442 Y14.559 E71.4957
G1 X126.141 Y14.757 E71.53194
G1 X126.814 Y15.03 E71.56818
G1 X127.453 Y15.375 E71.60441
G1 X128.05 Y15.789 E71.64065
G1 X128.598 Y16.265 E71.67686
G1 X129.091 Y16.799 E71.71312
G1 X129.521 Y17.384 E71.74935
G1 X129.885 Y18.013 E71.7856
G1 X130.178 Y18.678 E71.82186
G1 X130.396 Y19.371 E71.8581
G1 X130.536 Y20.083 E71.8943
G1 X130.6 Y21 E71.94016
G1 X130.6 Y179 E79.82282
G1 X130.56 Y179.725 E79.85904
G1 X130.441 Y180.442 E79.8953
G1 X130.243 Y181.141 E79.93155
G1 X129.97 Y181.814 E79.96778
G1 X129.625 Y182.453 E80.00401
G1 X129.211 Y183.05 E80.04026
G1 X128.735 Y183.598 E80.07647
G1 X128.201 Y184.091 E80.11273
G1 X127.616 Y184.521 E80.14895
G1 X126.987 Y184.885 E80.18521
G1 X126.322 Y185.178 E80.22146
G1 X125.629 Y185.396 E80.25771
G1 X124.917 Y185.536 E80.29391
G1 X124 Y185.6 E80.33977
G1 X76 Y185.6 E82.7345
G1 X75.275 Y185.56 E82.77072
G1 X74.558 Y185.441 E82.80698
G1 X73.859 Y185.243 E82.84323
G1 X73.186 Y184.97 E82.87946
G1 X72.547 Y184.625 E82.91569
G1 X71.95 Y184.211 E82.95194
G1 X71.402 Y183.735 E82.98815
G1 X70.909 Y183.201 E83.02441
G1 X70.479 Y182.616 E83.06063
G1 X70.115 Y181.987 E83.09689
G1 X69.822 Y181.322 E83.13314
G1 X69.604 Y180.629 E83.16939
G1 X69.464 Y179.917 E83.20559
G1 X69.4 Y179 E83.25145
G1 X69.4 Y21 E91.1341
G1 X69.44 Y20.275 E91.17033
G1 X69.559 Y19.558 E91.20659
G1 X69.757 Y18.859 E91.24283
G0 F3600 X70.157 Y18.928
G1 F1800 X70.429 Y18.279 E91.27794
G1 X70.774 Y17.665 E91.31308
G1 X71.185 Y17.094 E91.34818
G1 X71.659 Y16.573 E91.38332
G1 X72.189 Y16.109 E91.41846
G1 X72.768 Y15.709 E91.45357
G1 X73.389 Y15.377 E91.4887
G1 X74.043 Y15.117 E91.52381
G1 X74.723 Y14.933 E91.55896
G1 X75.419 Y14.827 E91.59408
G1 X76 Y14.8 E91.6231
G1 X124 Y14.8 E94.01783
G1 X124.703 Y14.84 E94.05296
G1 X125.397 Y14.959 E94.08809
G1 X126.072 Y15.157 E94.12318
G1 X126.721 Y15.429 E94.15829
G1 X127.335 Y15.774 E94.19343
G1 X127.906 Y16.185 E94.22853
G1 X128.427 Y16.659 E94.26367
G1 X128.891 Y17.189 E94.29881
G1 X129.291 Y17.768 E94.33392
G1 X129.623 Y18.389 E94.36905
G1 X129.883 Y19.043 E94.40417
G1 X130.067 Y19.723 E94.43931
G1 X130.173 Y20.419 E94.47443
G1 X130.2 Y21 E94.50345
G1 X130.2 Y179 E102.3861
G1 X130.16 Y179.703 E102.42123
G1 X130.041 Y180.397 E102.45636
G1 X129.843 Y181.072 E102.49146
G1 X129.571 Y181.721 E102.52656
G1 X129.226 Y182.335 E102.5617
G1 X128.815 Y182.906 E102.5968
G1 X128.341 Y183.427 E102.63194
G1 X127.811 Y183.891 E102.66709
G1 X127.232 Y184.291 E102.70219
G1 X126.611 Y184.623 E102.73733
G1 X125.957 Y184.883 E102.77244
G1 X125.277 Y185.067 E102.80758
G1 X124.581 Y185.173 E102.84271
G1 X124 Y185.2 E102.87173
G1 X76 Y185.2 E105.26645
G1 X75.297 Y185.16 E105.30158
G1 X74.603 Y185.041 E105.33671
G1 X73.928 Y184.843 E105.37181
G1 X73.279 Y184.571 E105.40692
G1 X72.665 Y184.226 E105.44205
G1 X72.094 Y183.815 E105.47715
G1 X71.573 Y183.341 E105.51229
G1 X71.109 Y182.811 E105.54744
G1 X70.709 Y182.232 E105.58255
G1 X70.377 Y181.611 E105.61768
G1 X70.117 Y180.957 E105.65279
G1 X69.933 Y180.277 E105.68793
G1 X69.827 Y179.581 E105.72306
G1 X69.8 Y179 E105.75208
G1 X69.8 Y21 E113.63473
G1 X69.84 Y20.297 E113.66986
G1 X69.959 Y19.603 E113.70499
G1 X70.157 Y18.928 E113.74008
G0 F3600 X70.556 Y18.998
G1 F1800 X70.828 Y18.374 E113.77404
G1 X71.172 Y17.786 E113.80803
G1 X71.582 Y17.242 E113.84201
G1 X72.053 Y16.751 E113.87596
G1 X72.578 Y16.317 E113.90994
G1 X73.15 Y15.948 E113.9439
G1 X73.762 Y15.649 E113.97788
G1 X74.404 Y15.424 E114.01182
G1 X75.069 Y15.275 E114.04582
G1 X76 Y15.2 E114.09242
G1 X124 Y15.2 E116.48715
G1 X124.68 Y15.24 E116.52113
G1 X125.35 Y15.359 E116.55508
G1 X126.002 Y15.556 E116.58907
G1 X126.626 Y15.828 E116.62303
G1 X127.214 Y16.172 E116.65701
G1 X127.758 Y16.582 E116.691
G1 X128.249 Y17.053 E116.72494
G1 X128.683 Y17.578 E116.75893
G1 X129.052 Y18.15 E116.79289
G1 X129.351 Y18.762 E116.82687
G1 X129.576 Y19.404 E116.86081
G1 X129.725 Y20.069 E116.89481
G1 X129.8 Y21 E116.94141
G1 X129.8 Y179 E124.82406
G1 X129.76 Y179.68 E124.85804
G1 X129.641 Y180.35 E124.89199
G1 X129.444 Y181.002 E124.92597
G1 X129.172 Y181.626 E124.95993
G1 X128.828 Y182.214 E124.99392
G1 X128.418 Y182.758 E125.0279
G1 X127.947 Y183.249 E125.06185
G1 X127.422 Y183.683 E125.09583
G1 X126.85 Y184.052 E125.12979
G1 X126.238 Y184.351 E125.16377
G1 X125.596 Y184.576 E125.19771
G1 X124.931 Y184.725 E125.23171
G1 X124 Y184.8 E125.27831
G1 X76 Y184.8 E127.67304
G1 X75.32 Y184.76 E127.70703
G1 X74.65 Y184.641 E127.74097
G1 X73.998 Y184.444 E127.77496
G1 X73.374 Y184.172 E127.80892
G1 X72.786 Y183.828 E127.8429
G1 X72.242 Y183.418 E127.87689
G1 X71.751 Y182.947 E127.91083
G1 X71.317 Y182.422 E127.94482
G1 X70.948 Y181.85 E127.97878
G1 X70.649 Y181.238 E128.01276
G1 X70.424 Y180.596 E128.0467
G1 X70.275 Y179.931 E128.0807
G1 X70.2 Y179 E128.1273
G1 X70.2 Y21 E136.00995
G1 X70.24 Y20.32 E136.04393
G1 X70.359 Y19.65 E136.07788
G1 X70.556 Y18.998 E136.11186
G0 F3600 X70.759 Y19.698
G1 F1800 X70.956 Y19.071 E136.14465
G1 X71.228 Y18.473 E136.17743
G1 X71.57 Y17.912 E136.21021
G1 X71.978 Y17.397 E136.24298
G1 X72.445 Y16.935 E136.27576
G1 X72.965 Y16.534 E136.30852
G1 X73.529 Y16.198 E136.34127
G1 X74.131 Y15.934 E136.37407
G1 X74.76 Y15.744 E136.40685
G1 X75.407 Y15.633 E136.4396
G1 X76 Y15.6 E136.46923
G1 X124 Y15.6 E138.86396
G1 X124.656 Y15.64 E138.89675
G1 X125.302 Y15.759 E138.92952
G1 X125.929 Y15.956 E138.96231
G1 X126.527 Y16.228 E138.99508
G1 X127.088 Y16.57 E139.02786
G1 X127.603 Y16.978 E139.06064
G1 X128.065 Y17.445 E139.09342
G1 X128.466 Y17.965 E139.12618
G1 X128.802 Y18.529 E139.15893
G1 X129.066 Y19.131 E139.19172
G1 X129.256 Y19.76 E139.22451
G1 X129.367 Y20.407 E139.25726
G1 X129.4 Y21 E139.28689
G1 X129.4 Y179 E147.16954
G1 X129.36 Y179.656 E147.20233
G1 X129.241 Y180.302 E147.2351
G1 X129.044 Y180.929 E147.26789
G1 X128.772 Y181.527 E147.30066
G1 X128.43 Y182.088 E147.33344
G1 X128.022 Y182.603 E147.36622
G1 X127.555 Y183.065 E147.399
G1 X127.035 Y183.466 E147.43176
G1 X126.471 Y183.802 E147.46451
G1 X125.869 Y184.066 E147.4973
G1 X125.24 Y184.256 E147.53009
G1 X124.593 Y184.367 E147.56284
G1 X124 Y184.4 E147.59247
G1 X76 Y184.4 E149.9872
G1 X75.344 Y184.36 E150.01999
G1 X74.698 Y184.241 E150.05276
G1 X74.071 Y184.044 E150.08555
G1 X73.473 Y183.772 E150.11832
G1 X72.912 Y183.43 E150.1511
G1 X72.397 Y183.022 E150.18388
G1 X71.935 Y182.555 E150.21665
G1 X71.534 Y182.035 E150.24941
G1 X71.198 Y181.471 E150.28217
G1 X70.934 Y180.869 E150.31496
G1 X70.744 Y180.24 E150.34774
G1 X70.633 Y179.593 E150.38049
G1 X70.6 Y179 E150.41012
G1 X70.6 Y21 E158.29278
G1 X70.64 Y20.344 E158.32557
G1 X70.759 Y19.698 E158.35834
G0 F3600 X71.159 Y19.748
G1 F1800 X71.356 Y19.148 E158.38984
G1 X71.627 Y18.576 E158.42142
G1 X71.967 Y18.044 E158.45292
G1 X72.373 Y17.559 E158.48448
G1 X72.836 Y17.129 E158.516
G1 X73.35 Y16.76 E158.54757
G1 X73.906 Y16.46 E158.57909
G1 X74.495 Y16.232 E158.6106
G1 X75.109 Y16.08 E158.64215
G1 X76 Y16 E158.68679
G1 X124 Y16 E161.08151
G1 X124.631 Y16.04 E161.11306
G1 X125.252 Y16.159 E161.1446
G1 X125.852 Y16.356 E161.17611
G1 X126.424 Y16.627 E161.20769
G1 X126.956 Y16.967 E161.23919
G1 X127.441 Y17.373 E161.27074
G1 X127.871 Y17.836 E161.30227
G1 X128.24 Y18.35 E161.33384
G1 X128.54 Y18.906 E161.36535
G1 X128.768 Y19.495 E161.39686
G1 X128.92 Y20.109 E161.42842
G1 X129 Y21 E161.47305
G1 X129 Y179 E169.3557
G1 X128.96 Y179.631 E169.38725
G1 X128.841 Y180.252 E169.41879
G1 X128.644 Y180.852 E169.4503
G1 X128.373 Y181.424 E169.48188
G1 X128.033 Y181.956 E169.51338
G1 X127.627 Y182.441 E169.54493
G1 X127.164 Y182.871 E169.57646
G1 X126.65 Y183.24 E169.60803
G1 X126.094 Y183.54 E169.63954
G1 X125.505 Y183.768 E169.67105
G1 X124.891 Y183.92 E169.70261
G1 X124 Y184 E169.74724
G1 X76 Y184 E172.14197
G1 X75.369 Y183.96 E172.17352
G1 X74.748 Y183.841 E172.20506
G1 X74.148 Y183.644 E172.23657
G1 X73.576 Y183.373 E172.26815
G1 X73.044 Y183.033 E172.29965
G1 X72.559 Y182.627 E172.3312
G1 X72.129 Y182.164 E172.36273
G1 X71.76 Y181.65 E172.39429
G1 X71.46 Y181.094 E172.42581
G1 X71.232 Y180.505 E172.45732
G1 X71.08 Y179.891 E172.48888
G1 X71 Y179 E172.53351
G1 X71 Y21 E180.41616
G1 X71.04 Y20.369 E180.44771
G1 X71.159 Y19.748 E180.47925
G0 F3600 X71.559 Y19.801
G1 F1800 X71.755 Y19.227 E180.50951
G1 X72.026 Y18.684 E180.53979
G1 X72.365 Y18.181 E180.57005
G1 X72.767 Y17.728 E180.60027
G1 X73.225 Y17.331 E180.63051
G1 X73.732 Y16.998 E180.66077
G1 X74.278 Y16.734 E180.69103
G1 X74.854 Y16.545 E180.72127
G1 X75.45 Y16.433 E180.75153
G1 X76 Y16.4 E180.77901
G1 X124 Y16.4 E183.17374
G1 X124.605 Y16.44 E183.20399
G1 X125.199 Y16.559 E183.23422
G1 X125.773 Y16.755 E183.26448
G1 X126.316 Y17.026 E183.29475
G1 X126.819 Y17.365 E183.32502
G1 X127.272 Y17.767 E183.35523
G1 X127.669 Y18.225 E183.38547
G1 X128.002 Y18.732 E183.41573
G1 X128.266 Y19.278 E183.44599
G1 X128.455 Y19.854 E183.47624
G1 X128.567 Y20.45 E183.50649
G1 X128.6 Y21 E183.53398
G1 X128.6 Y179 E191.41663
G1 X128.56 Y179.605 E191.44688
G1 X128.441 Y180.199 E191.4771
G1 X128.245 Y180.773 E191.50736
G1 X127.974 Y181.316 E191.53764
G1 X127.635 Y181.819 E191.5679
G1 X127.233 Y182.272 E191.59812
G1 X126.775 Y182.669 E191.62836
G1 X126.268 Y183.002 E191.65862
G1 X125.722 Y183.266 E191.68888
